src/assets/duotone/UserMinus.svg

<svg width="24" height="24" viewBox="0 0 24 24"  xmlns="http://www.w3.org/2000/svg">
<path d="M20.97 14.33C20.25 13.51 19.18 13 18 13C16.88 13 15.86 13.46 15.13 14.21C14.43 14.93 14 15.92 14 17C14 17.75 14.21 18.46 14.58 19.06C14.78 19.4 15.04 19.71 15.34 19.97C16.04 20.61 16.97 21 18 21C19.46 21 20.73 20.22 21.42 19.06C21.63 18.72 21.79 18.33 21.88 17.93C21.96 17.63 22 17.32 22 17C22 15.98 21.61 15.04 20.97 14.33ZM19.5 17.73H16.51C16.1 17.73 15.76 17.39 15.76 16.98C15.76 16.57 16.1 16.23 16.51 16.23H19.5C19.91 16.23 20.25 16.57 20.25 16.98C20.25 17.39 19.91 17.73 19.5 17.73Z" />
<path opacity="0.4" d="M21.0902 21.5C21.0902 21.78 20.8702 22 20.5902 22H3.41016C3.13016 22 2.91016 21.78 2.91016 21.5C2.91016 17.36 6.99018 14 12.0002 14C13.0302 14 14.0302 14.14 14.9502 14.41C14.3602 15.11 14.0002 16.02 14.0002 17C14.0002 17.75 14.2102 18.46 14.5802 19.06C14.7802 19.4 15.0402 19.71 15.3402 19.97C16.0402 20.61 16.9702 21 18.0002 21C19.1202 21 20.1302 20.54 20.8502 19.8C21.0102 20.34 21.0902 20.91 21.0902 21.5Z" />
<path d="M12 12C14.7614 12 17 9.76142 17 7C17 4.23858 14.7614 2 12 2C9.23858 2 7 4.23858 7 7C7 9.76142 9.23858 12 12 12Z" />
</svg>

<?xml version="1.0" encoding="UTF-8"?>
<svg width="24" height="24" viewBox="0 0 24 24" xmlns="http://www.w3.org/2000/svg">
 <path d="m20.97 14.33c-0.72-0.82-1.79-1.33-2.97-1.33-1.12 0-2.14 0.46-2.87 1.21-0.7 0.72-1.13 1.71-1.13 2.79 0 0.75 0.21 1.46 0.58 2.06 0.2 0.34 0.46 0.65 0.76 0.91 0.7 0.64 1.63 1.03 2.66 1.03 1.46 0 2.73-0.78 3.42-1.94 0.21-0.34 0.37-0.73 0.46-1.13 0.08-0.3 0.12-0.61 0.12-0.93 0-1.02-0.39-1.96-1.03-2.67zm-1.47 3.4h-2.99c-0.41 0-0.75-0.34-0.75-0.75s0.34-0.75 0.75-0.75h2.99c0.41 0 0.75 0.34 0.75 0.75s-0.34 0.75-0.75 0.75z"/>
 <path d="m21.09 21.5c0 0.28-0.22 0.5-0.5 0.5h-17.18c-0.28 0-0.5-0.22-0.5-0.5 0-4.14 4.08-7.5 9.09-7.5 1.03 0 2.03 0.14 2.95 0.41-0.59 0.7-0.95 1.61-0.95 2.59 0 0.75 0.21 1.46 0.58 2.06 0.2 0.34 0.46 0.65 0.76 0.91 0.7 0.64 1.63 1.03 2.66 1.03 1.12 0 2.13-0.46 2.85-1.2 0.16 0.54 0.24 1.11 0.24 1.7z" opacity=".4"/>
 <path d="m12 12c2.7614 0 5-2.2386 5-5s-2.2386-5-5-5c-2.7614 0-5 2.2386-5 5s2.2386 5 5 5z"/>
</svg>
